X:22
M:3/2
L:1/8
Q:1/2=100
K:D
"6/4 in book"D2d4cB AGFE | efge fgaf c2A2 | D2d2edcB FAdF | efge fgaf d2D2 ||
f2ef gfed cdec | Bede Bede c2A2 | d2A2B2G2A2F2 | f2ef gf ec d2D2 |]

